X:16213
T:Sweet Hesleyside
R:Other
O:England
M:6/8
A:Northumbria
K:G
d|\
g2d B2A/G/|f2e c2 B/c/|\
d2 ^c/d/ e/d2=c/|(B3 B2)d|\
g2d B2A/G/|f2e c2B/c/|\
d2^c/d/ e/d2F/|(G3 G2)||
G|\
c2c B2B|ABc B2B|A2A B2^c|(d3 d2)d|\
g2d B2A/G/|f2e c2B/c/|
d2 ^c/d/ fef|(g3 g2)g|\
g2d B2A/B/|f2e c2B/c/|d2^c/d/ fef|(g3 g2)|]
